assets/Television/Flat/television_flat.svg

<svg width="32" height="32" viewBox="0 0 32 32" fill="none" xmlns="http://www.w3.org/2000/svg">
<path d="M10.3535 3.06063C10.1582 2.86537 10.1582 2.54879 10.3535 2.35352C10.5487 2.15826 10.8653 2.15826 11.0606 2.35352L14.9497 6.24261L14.2426 6.94972L10.3535 3.06063Z" fill="#636363"/>
<path d="M18.889 2.35348C19.0842 2.15822 19.4008 2.15822 19.5961 2.35348C19.7914 2.54874 19.7914 2.86532 19.5961 3.06058L15.707 6.94967L14.9999 6.24257L18.889 2.35348Z" fill="#636363"/>
<path d="M11.0002 23.5L8.00024 23L6.46544 28.7279C6.31248 29.2987 6.65125 29.8855 7.22209 30.0385C7.73725 30.1765 8.2754 29.9141 8.48393 29.4232L11.0002 23.5Z" fill="#636363"/>
<path d="M21.0002 23.5L24.0002 23L25.535 28.7279C25.688 29.2987 25.3492 29.8855 24.7784 30.0385C24.2632 30.1765 23.7251 29.9141 23.5165 29.4232L21.0002 23.5Z" fill="#636363"/>
<path d="M3 9C3 7.34315 4.34315 6 6 6H26C27.6569 6 29 7.34315 29 9V22C29 23.6569 27.6569 25 26 25H6C4.34315 25 3 23.6569 3 22V9Z" fill="#9B9B9B"/>
<circle cx="25.75" cy="13.25" r="1.25" fill="#CA0B4A"/>
<circle cx="25.75" cy="9.25" r="1.25" fill="#636363"/>
<path d="M6.5 11.5C6.5 10.3954 7.39543 9.5 8.5 9.5H20.5C21.6046 9.5 22.5 10.3954 22.5 11.5V19.5C22.5 20.6046 21.6046 21.5 20.5 21.5H8.5C7.39543 21.5 6.5 20.6046 6.5 19.5V11.5Z" fill="#83CBFF"/>
<path d="M21 10C21.5523 10 22 10.4477 22 11V20C22 20.5523 21.5523 21 21 21H8C7.44772 21 7 20.5523 7 20V11C7 10.4477 7.44772 10 8 10H21ZM8 9C6.89543 9 6 9.89543 6 11V20C6 21.1046 6.89543 22 8 22H21C22.1046 22 23 21.1046 23 20V11C23 9.89543 22.1046 9 21 9H8Z" fill="#321B41"/>
</svg>

<svg xmlns="http://www.w3.org/2000/svg" width="32" height="32" fill="none"><path fill="#636363" d="M10.354 3.06a.5.5 0 1 1 .707-.706l3.889 3.889-.707.707-3.89-3.89ZM18.889 2.353a.5.5 0 0 1 .707.708L15.707 6.95 15 6.243l3.889-3.89ZM11 23.5 8 23l-1.535 5.728a1.07 1.07 0 0 0 2.019.695L11 23.5ZM21 23.5l3-.5 1.535 5.728a1.07 1.07 0 0 1-2.018.695L21 23.5Z"/><path fill="#9B9B9B" d="M3 9a3 3 0 0 1 3-3h20a3 3 0 0 1 3 3v13a3 3 0 0 1-3 3H6a3 3 0 0 1-3-3V9Z"/><circle cx="25.75" cy="13.25" r="1.25" fill="#CA0B4A"/><circle cx="25.75" cy="9.25" r="1.25" fill="#636363"/><path fill="#83CBFF" d="M6.5 11.5a2 2 0 0 1 2-2h12a2 2 0 0 1 2 2v8a2 2 0 0 1-2 2h-12a2 2 0 0 1-2-2v-8Z"/><path fill="#321B41" d="M21 10a1 1 0 0 1 1 1v9a1 1 0 0 1-1 1H8a1 1 0 0 1-1-1v-9a1 1 0 0 1 1-1h13ZM8 9a2 2 0 0 0-2 2v9a2 2 0 0 0 2 2h13a2 2 0 0 0 2-2v-9a2 2 0 0 0-2-2H8Z"/></svg>
